X: 29708
T: Now She's Purring
R: reel
M: 4/4
K: Gmajor
(3Bc^c|:d>Bc>A G>Bd>B|A>DF>E D>FA>F|G2 G>F G>Bd>B|A2 A>^G A>df>e|
d>Bc>A G>Bd>B|A>DF>E D>FA>F|G2 g>f g>ec>A|G2 (3AGF G2:|
B>c|:d>g (3ggg d>g (3ggg|d>gg>f e>d^c>d|e>Aa>f g>fe>d|^c>de>f g>ag>e|
d>Bc>A G>Bd>B|A>DF>E D>FA>F|G2 g>f g>ec>A|G2 (3AGF G2:|

